X: 10843
M: C|
L: 1/8
K: F#m
[|v\
(C<F) "~\n#"F2 C>FA<F | C<(FF<G) (A<B) {AB}c2 |\
(C<F) "~\n#"F2 C>FA<F | (.E>.C)(A,>B,) (.C>.E)(E>^D) |
(C<F) "~\n#"F2 C>FA<F | C<(FF<G) (A<B) {AB}c2 |\
(A,<F) "~\n#"F2 C>FA<F | (.E>.C)(A,>B,) (C>E) ~E |]
u(c/B/) |\
(.a>.c)(B>A) (.G>.F)(E>D) | (.C>.A,) (E>A,) "_Segue Reel."(C>E) ~E2 "^D.C."|]


